Catalina-light/actions/16/snap-nodes-midpoint.svg

<svg xmlns="http://www.w3.org/2000/svg" width="16" height="16" viewBox="0 0 16 16">
 <defs>
  <style id="current-color-scheme" type="text/css">
   .ColorScheme-Text { color:#5c616c; } .ColorScheme-Highlight { color:#5294e2; }
  </style>
 </defs>
 <path style="fill:currentColor" class="ColorScheme-Text" d="M 12.613281 0.20507812 A 0.50005 0.50005 0 0 0 12.142578 0.77929688 L 12.425781 2.8652344 L 11.388672 3.9023438 L 11.085938 1.671875 A 0.50005 0.50005 0 0 0 10.564453 1.2324219 A 0.50005 0.50005 0 0 0 10.095703 1.8066406 L 10.5 4.7910156 L 8.7910156 6.5 L 6.5 6.5 L 6.5 7.90625 L 5.2695312 8.2578125 L 5.0097656 6.3359375 A 0.50005 0.50005 0 0 0 4.4882812 5.8964844 A 0.50005 0.50005 0 0 0 4.0175781 6.46875 L 4.2988281 8.5351562 L 2.6113281 9.0175781 L 2.3710938 7.2519531 A 0.50005 0.50005 0 0 0 1.8496094 6.8125 A 0.50005 0.50005 0 0 0 1.3789062 7.3867188 L 1.6386719 9.296875 L 0.86328125 9.5175781 A 0.50005 0.50005 0 1 0 1.1367188 10.478516 L 1.7734375 10.296875 L 2.1601562 13.130859 L 0.64648438 14.644531 A 0.50005 0.50005 0 1 0 1.3535156 15.351562 L 2.328125 14.376953 L 2.4257812 15.089844 A 0.50005 0.50005 0 1 0 3.4160156 14.957031 L 3.2167969 13.488281 L 4.7617188 11.943359 L 5.0644531 14.173828 A 0.50005 0.50005 0 1 0 6.0546875 14.039062 L 5.6503906 11.054688 L 7.2050781 9.5 L 9.5 9.5 L 9.5 8.0898438 L 10.894531 7.6914062 L 11.140625 9.5097656 A 0.50052 0.50052 0 0 0 12.132812 9.3769531 L 11.865234 7.4140625 L 13 7.0898438 L 13.189453 8.484375 A 0.50006301 0.50006301 0 1 0 14.179688 8.3496094 L 13.970703 6.8125 L 15.136719 6.4785156 A 0.50005 0.50005 0 0 0 14.996094 5.4960938 A 0.50005 0.50005 0 0 0 14.863281 5.5175781 L 13.835938 5.8105469 L 13.484375 3.2207031 L 15.353516 1.3515625 A 0.50005 0.50005 0 0 0 14.990234 0.49414062 A 0.50005 0.50005 0 0 0 14.646484 0.64453125 L 13.314453 1.9765625 L 13.134766 0.64453125 A 0.50005 0.50005 0 0 0 12.613281 0.20507812 z M 12.595703 4.109375 L 12.863281 6.0898438 L 11.730469 6.4121094 L 11.558594 5.1464844 L 12.595703 4.109375 z M 10.669922 6.0351562 L 10.757812 6.6914062 L 9.7167969 6.9882812 L 10.669922 6.0351562 z M 6.2832031 9.0078125 L 5.4804688 9.8105469 L 5.40625 9.2578125 L 6.2832031 9.0078125 z M 4.4335938 9.5371094 L 4.5917969 10.699219 L 3.0488281 12.242188 L 2.7460938 10.017578 L 4.4335938 9.5371094 z"/>
</svg>

<svg width="16" height="16" viewBox="0 0 16 16" xmlns="http://www.w3.org/2000/svg">
<defs>
<style id="current-color-scheme" type="text/css">.ColorScheme-Text { color:#5c616c; } .ColorScheme-Highlight { color:#5294e2; }</style>
</defs>
<path class="ColorScheme-Text" d="m12.613 0.20508a0.50005 0.50005 0 0 0-0.4707 0.57422l0.2832 2.0859-1.0371 1.0371-0.30273-2.2305a0.50005 0.50005 0 0 0-0.52148-0.43945 0.50005 0.50005 0 0 0-0.46875 0.57422l0.4043 2.9844-1.709 1.709h-2.291v1.4062l-1.2305 0.35156-0.25977-1.9219a0.50005 0.50005 0 0 0-0.52148-0.43945 0.50005 0.50005 0 0 0-0.4707 0.57227l0.28125 2.0664-1.6875 0.48242-0.24023-1.7656a0.50005 0.50005 0 0 0-0.52148-0.43945 0.50005 0.50005 0 0 0-0.4707 0.57422l0.25977 1.9102-0.77539 0.2207a0.50005 0.50005 0 1 0 0.27344 0.96094l0.63672-0.18164 0.38672 2.834-1.5137 1.5137a0.50005 0.50005 0 1 0 0.70703 0.70703l0.97461-0.97461 0.097656 0.71289a0.50005 0.50005 0 1 0 0.99023-0.13281l-0.19922-1.4688 1.5449-1.5449 0.30273 2.2305a0.50005 0.50005 0 1 0 0.99023-0.13477l-0.4043-2.9844 1.5547-1.5547h2.2949v-1.4102l1.3945-0.39844 0.24609 1.8184a0.50052 0.50052 0 0 0 0.99219-0.13281l-0.26758-1.9629 1.1348-0.32422 0.18945 1.3945a0.50006 0.50006 0 1 0 0.99024-0.13477l-0.20898-1.5371 1.166-0.33398a0.50005 0.50005 0 0 0-0.14062-0.98242 0.50005 0.50005 0 0 0-0.13281 0.021484l-1.0273 0.29297-0.35156-2.5898 1.8691-1.8691a0.50005 0.50005 0 0 0-0.36328-0.85742 0.50005 0.50005 0 0 0-0.34375 0.15039l-1.332 1.332-0.17969-1.332a0.50005 0.50005 0 0 0-0.52148-0.43945zm-0.017578 3.9043 0.26758 1.9805-1.1328 0.32227-0.17188-1.2656 1.0371-1.0371zm-1.9258 1.9258 0.08789 0.65625-1.041 0.29688 0.95313-0.95312zm-4.3867 2.9727-0.80273 0.80273-0.074219-0.55273 0.87695-0.25zm-1.8496 0.5293 0.1582 1.1621-1.543 1.543-0.30273-2.2246 1.6875-0.48047z" fill="#363636"/>
</svg>
